archcraft-icons-breeze/files/Archcraft/places/96/folder-temp.svg

<svg id="svg15" version="1.1" viewBox="0 0 96 96" xmlns="http://www.w3.org/2000/svg" xmlns:xlink="http://www.w3.org/1999/xlink">
    <defs id="defs5455">
        <linearGradient id="linearGradient4178" x2="0" y1="541.79797" y2="499.78421" gradientTransform="matrix(1.4999996,0,0,1.4995115,-576.85701,-725.43213)" gradientUnits="userSpaceOnUse">
            <stop id="stop4174-6-7" stop-color="#3daee9" offset="0"/>
            <stop id="stop4176-6-5" stop-color="#6cc1ef" offset="1"/>
        </linearGradient>
    </defs>
    <g id="layer1" transform="translate(-384.57144,-483.798)">
        <path id="rect4180" transform="translate(384.57144,483.798)" d="m6 9-1.17e-5 20.999996h84l1.2e-5 -14.999996h-42l-6-6z" fill="#147eb8" stroke-width="1.5"/>
        <path id="rect4113" transform="translate(384.57144,483.798)" d="M 38.999988,23.999996 33,30 H 5 V 87 H 91 V 24 Z" fill="url(#linearGradient4178)" stroke-width="1.5"/>
        <g fill-opacity=".235294" stroke-width="1.5">
            <path id="path4224-1" d="m389.57143 513.798v1h29l4.99999-6.99983-6.00001 6z" fill="#fff" fill-rule="evenodd"/>
            <path id="path4228-0" d="m390.57143 512.798v1.00017h26.99998l6.00002-6.00017-7 5z" fill-rule="evenodd"/>
            <path id="path4151-2" transform="translate(384.57144,483.798)" d="m4.9999883 85.999996v1l86-0.01628v-0.983722z"/>
            <path id="path4196" transform="translate(384.57144,483.798)" d="M 42,9 46.999988,15.999996 90,16 V 15 H 48 Z" fill="#fff" fill-rule="evenodd"/>
        </g>
        <path id="rect4138" transform="translate(384.57144,483.798)" d="m47.886719 41a15 15 0 0 0-14.886719 15 15 15 0 0 0 15 15 15 15 0 0 0 15-15 15 15 0 0 0-15-15 15 15 0 0 0-0.113281 0zm0.113281 1a14 14 0 0 1 14 14 14 14 0 0 1-14 14 14 14 0 0 1-14-14 14 14 0 0 1 14-14zm-1 2v13h13v-1h-12v-12z" fill="#1272a5" stroke-width="1.36364"/>
    </g>
</svg>

<svg xmlns="http://www.w3.org/2000/svg" viewBox="0 0 96 96">
  <defs id="defs3051">
    <style type="text/css" id="current-color-scheme">
      .ColorScheme-Text {
        color:#232629;
      }
      .ColorScheme-Accent {
        color:#3daee9;
      }
      </style>
  </defs>
 <path 
     style="fill:currentColor" 
     d="M 6 9 L 6 30 L 5 30 L 5 87 L 91 87 L 91 24 L 90 24 L 90 15 L 48 15 L 42 9 L 6 9 z "
     class="ColorScheme-Accent"
     />
 <path 
     style="fill-opacity:0.33"
     d="M 6 9 L 6 30 L 33 30 L 39 24 L 90 24 L 90 15 L 48 15 L 42 9 L 6 9 z "
     />
 <path 
     style="fill:#ffffff;fill-opacity:0.2"
     d="M 42 9 L 47 16 L 90 16 L 90 15 L 48 15 L 42 9 z M 39 24 L 33 30 L 5 30 L 5 31 L 34 31 L 39 24 z "
     />
 <path 
     style="fill-opacity:0.2;fill-rule:evenodd"
     d="M 39 24 L 32 29 L 6 29 L 6 30 L 33 30 L 39 24 z M 5 86 L 5 87 L 91 87 L 91 86 L 5 86 z "
     class="ColorScheme-Text"
     />
 <path 
     style="fill:currentColor;fill-opacity:0.6;stroke:none"  
     d="M 47.886719 41 A 15 15 0 0 0 33 56 A 15 15 0 0 0 48 71 A 15 15 0 0 0 63 56 A 15 15 0 0 0 48 41 A 15 15 0 0 0 47.9 41 z M 48 42 A 14 14 0 0 1 62 56 A 14 14 0 0 1 48 70 A 14 14 0 0 1 34 56 A 14 14 0 0 1 48 42 z M 47 44 L 47 57 L 60 57 L 60 56 L 48 56 L 48 44 L 47 44 z "
     class="ColorScheme-Text"
     />
</svg>
